img/vantage/3.svg

<svg width="187" height="177" viewBox="0 0 187 177" fill="none" xmlns="http://www.w3.org/2000/svg">
<g filter="url(#filter0_f_421_1995)">
<path d="M82.4675 80.256C87.8982 76.8338 94.231 74.8431 98.2233 75.8273L175.277 97.7694C176.106 97.747 176.557 98.4628 176.783 98.8206C176.783 98.8206 176.783 98.8206 177.008 99.1785L177.234 99.5364C177.459 99.8943 177.082 100.632 177.082 100.632C177.307 100.99 176.704 101.371 176.326 102.109C175.722 102.489 175.948 102.847 175.344 103.227C174.741 103.607 174.967 103.965 174.363 104.345C173.76 104.726 173.382 105.464 173.382 105.464C172.175 106.224 172.175 106.224 172.175 106.224L82.8697 162.501L82.2663 162.881C81.6629 163.261 81.6629 163.261 81.6629 163.261C81.0595 163.641 81.0595 163.641 81.0595 163.641L80.4561 164.021C79.8526 164.402 79.2492 164.782 79.2492 164.782C76.6101 165.945 74.3488 166.37 72.0875 166.795C71.4841 167.175 71.2586 166.817 71.2586 166.817L70.4296 166.84C68.7718 166.885 68.5463 166.527 68.5463 166.527C65.6084 165.878 63.8774 164.469 64.938 160.801L73.331 92.5133C72.5081 88.5319 77.0368 83.6782 82.4675 80.256Z" fill="#26255F" fill-opacity="0.3"/>
</g>
<path d="M38.9011 125.496L40.9021 128.671C39.2596 128.72 39.0372 128.367 39.0372 128.367C37.3947 128.417 36.1288 127.736 35.4619 126.677L33.4609 123.502C34.1279 124.56 35.3938 125.241 37.0363 125.192C37.2586 125.545 37.2586 125.545 38.9011 125.496Z" fill="#848484"/>
<path d="M145.132 59.0464L147.133 62.2217C147.356 62.5745 146.979 63.3048 146.979 63.3048L146.602 64.035L144.602 60.8597L144.978 60.1295C144.978 60.1295 145.355 59.3992 145.132 59.0464Z" fill="#919191"/>
<path d="M144.821 61.2095L146.822 64.3848C146.822 64.3848 146.822 64.3848 146.445 65.115L146.069 65.8453L144.068 62.67C143.845 62.3172 144.444 61.9397 144.821 61.2095Z" fill="#8C8C8C"/>
<path d="M143.846 62.315L145.847 65.4903C145.248 65.8677 145.471 66.2205 144.872 66.5979L142.871 63.4226C143.47 63.0452 143.47 63.0452 143.846 62.315Z" fill="#888888"/>
<path d="M142.869 63.4136L144.87 66.5889C144.87 66.5889 144.87 66.5889 144.271 66.9663L142.869 63.4136Z" fill="#888888"/>
<path d="M142.269 63.7911L144.27 66.9664C143.671 67.3438 143.671 67.3438 143.072 67.7212L141.071 64.5459C141.893 64.5213 142.491 64.1439 142.269 63.7911Z" fill="#848484"/>
<path d="M140.696 65.2828L52.0557 121.14L54.0566 124.315L142.697 68.4581L140.696 65.2828Z" fill="#858585"/>
<path d="M52.0592 121.151L54.0601 124.326L53.4612 124.703C52.8623 125.081 52.8623 125.081 52.8623 125.081C52.2634 125.458 52.2634 125.458 52.2634 125.458L51.6644 125.836C51.0655 126.213 50.4666 126.59 50.4666 126.59C47.8486 127.747 45.6072 128.174 43.3657 128.6C42.7668 128.978 42.5445 128.625 42.5445 128.625L41.7233 128.65L39.5 125.122C39.5 125.122 39.5 125.122 40.3212 125.097L41.1425 125.072C43.3839 124.646 45.6253 124.219 48.2433 123.062C48.8423 122.685 48.8423 122.685 49.4412 122.307L50.0401 121.93L50.639 121.553L51.2379 121.175C52.0592 121.151 52.0592 121.151 52.0592 121.151Z" fill="#848484"/>
<path d="M141.896 64.5347L143.897 67.71C142.699 68.4648 142.699 68.4648 142.699 68.4648L140.698 65.2896C140.698 65.2896 140.698 65.2896 141.896 64.5347Z" fill="#848484"/>
<path d="M144.82 61.2028C145.419 60.8254 145.197 60.4725 144.975 60.1197C145.351 59.3895 145.129 59.0367 145.129 59.0367L162.693 86.9087C163.137 87.6143 162.761 88.3445 161.785 89.4522L144.221 61.5802L144.82 61.2028Z" fill="#919191"/>
<path d="M162.384 89.0778L164.385 92.2531L162.384 89.0778C161.785 89.4552 161.785 89.4552 162.384 89.0778Z" fill="#818181"/>
<path d="M161.784 89.4556L163.785 92.6309L163.409 93.3611L161.408 90.1858L161.784 89.4556Z" fill="#828282"/>
<path d="M144.446 61.9394C144.224 61.5866 144.224 61.5866 144.446 61.9394L162.387 89.0812L161.411 90.1888L143.847 62.3169C143.847 62.3169 143.847 62.3169 144.446 61.9394Z" fill="#8D8D8D"/>
<path d="M161.41 90.1852L163.411 93.3605L145.248 65.8659L143.47 63.0435L161.41 90.1852Z" fill="#808080"/>
<path d="M143.469 63.044L161.409 90.1857L160.434 91.2934L142.87 63.4214C142.87 63.4214 142.87 63.4214 143.469 63.044C142.87 63.4214 142.87 63.4214 143.469 63.044Z" fill="#888888"/>
<path d="M160.813 90.564L162.814 93.7393L161.838 94.8469L159.838 91.6717L160.813 90.564Z" fill="#818181"/>
<path d="M159.833 91.6617L161.834 94.837L161.235 95.2144L160.636 95.5918L158.635 92.4165C158.857 92.7693 159.456 92.3919 159.833 91.6617C159.833 91.6617 159.234 92.0391 159.833 91.6617Z" fill="#808080"/>
<path d="M51.3711 122.448C51.9754 122.067 52.5796 121.686 53.1838 121.306L70.6235 148.981C61.5601 154.692 53.531 155.347 51.3234 151.844L33.8838 124.168C34.1045 124.519 34.1045 124.519 34.1045 124.519C34.1045 124.519 34.1045 124.519 34.3253 124.869C34.3253 124.869 34.3253 124.869 34.5461 125.219L34.7668 125.57C35.2083 126.27 36.0333 126.24 36.8583 126.209C36.8583 126.209 37.079 126.56 37.6833 126.179C37.6833 126.179 37.6833 126.179 38.5082 126.149C38.5082 126.149 38.5083 126.149 39.3332 126.118C40.1582 126.088 40.1582 126.088 40.7624 125.707L41.5874 125.677C41.5874 125.677 41.5874 125.677 42.1917 125.296C42.1917 125.296 42.1917 125.296 42.7959 124.915C42.7959 124.915 43.4001 124.534 43.6209 124.885C43.6209 124.885 44.2251 124.504 44.4458 124.854L45.0501 124.473L45.6543 124.093C46.2585 123.712 47.0835 123.681 48.292 122.92L48.8962 122.539C50.7669 122.829 50.7669 122.829 51.3711 122.448Z" fill="url(#paint0_linear_421_1995)"/>
<path fill-rule="evenodd" clip-rule="evenodd" d="M134.201 73.275L135.998 72.1427L135.998 72.1427C136.597 71.7653 136.597 71.7653 137.053 69.8334L137.652 69.456C138.353 69.0138 138.765 68.5666 139.105 68.196C139.346 67.934 139.552 67.7103 139.8 67.554L140.399 67.1766L140.998 66.7992C140.817 66.5119 141.089 66.2327 141.248 66.1037L140.698 65.2708L141.297 64.8934L141.896 64.5159L142.495 64.1385L142.775 64.583L142.899 64.5048L143.251 63.735C143.85 63.3576 143.85 63.3576 144.201 62.5879L144.201 62.5879L144.553 61.8181L144.905 61.0483C145.504 60.6709 145.256 60.2785 145.256 60.2785C145.608 59.5088 145.96 58.739 145.465 57.9543L164.009 87.381C166.481 91.3045 163.421 95.2883 152.689 101.092L134.201 73.275Z" fill="url(#paint1_linear_421_1995)"/>
<path d="M158.862 92.7832L160.863 95.9585L160.264 96.3359L158.862 92.7832C158.263 93.1607 158.263 93.1607 158.862 92.7832Z" fill="#FAD9A2"/>
<path d="M69.6217 149.017L71.6227 152.192C63.2378 157.476 55.2476 158.075 53.0244 154.547L51.0234 151.372C53.2467 154.9 61.2368 154.301 69.6217 149.017Z" fill="url(#paint2_linear_421_1995)"/>
<path fill-rule="evenodd" clip-rule="evenodd" d="M52.0556 121.137L140.696 65.2802L158.26 93.1521L69.6193 149.009L52.0556 121.137ZM69.6217 149.017L158.262 93.1602L160.263 96.3354L71.6226 152.193L69.6217 149.017Z" fill="url(#paint3_linear_421_1995)"/>
<g style="mix-blend-mode:lighten" filter="url(#filter1_f_421_1995)">
<path d="M52.3327 41.5549C57.7635 38.1327 64.0963 36.1419 68.0885 37.1261L145.143 59.0682C145.972 59.0458 146.423 59.7616 146.648 60.1195C146.648 60.1195 146.648 60.1195 146.874 60.4773L147.099 60.8352C147.325 61.1931 146.947 61.9312 146.947 61.9312C147.172 62.2891 146.569 62.6693 146.191 63.4075C145.588 63.7877 145.813 64.1456 145.21 64.5258C144.606 64.9061 144.832 65.2639 144.228 65.6442C143.625 66.0244 143.247 66.7626 143.247 66.7626C142.04 67.523 142.04 67.523 142.04 67.523L52.735 123.799L52.1315 124.18C51.5281 124.56 51.5281 124.56 51.5281 124.56C50.9247 124.94 50.9247 124.94 50.9247 124.94L50.3213 125.32C49.7179 125.701 49.1145 126.081 49.1145 126.081C46.4753 127.244 44.214 127.669 41.9527 128.094C41.3493 128.474 41.1238 128.116 41.1238 128.116L40.2949 128.139C38.637 128.183 38.4115 127.825 38.4115 127.825C35.4737 127.177 33.7427 125.768 34.8032 122.099L43.1962 53.8122C42.3734 49.8308 46.902 44.9771 52.3327 41.5549Z" fill="url(#paint4_linear_421_1995)" fill-opacity="0.6"/>
</g>
<path d="M51.4685 40.1808C56.8992 36.7586 63.232 34.7679 67.2243 35.7521L144.278 57.6942C145.107 57.6718 145.558 58.3876 145.784 58.7454C145.784 58.7454 145.784 58.7454 146.009 59.1033L146.235 59.4612C146.46 59.8191 146.082 60.5572 146.082 60.5572C146.308 60.9151 145.705 61.2953 145.327 62.0334C144.723 62.4137 144.949 62.7715 144.345 63.1518C143.742 63.532 143.967 63.8899 143.364 64.2702C142.761 64.6504 142.383 65.3885 142.383 65.3885C141.176 66.149 141.176 66.149 141.176 66.149L51.8707 122.425L51.2673 122.806C50.6639 123.186 50.6639 123.186 50.6639 123.186C50.0605 123.566 50.0604 123.566 50.0604 123.566L49.457 123.946C48.8536 124.327 48.2502 124.707 48.2502 124.707C45.611 125.87 43.3498 126.295 41.0885 126.72C40.4851 127.1 40.2595 126.742 40.2595 126.742L39.4306 126.765C37.7728 126.809 37.5472 126.451 37.5472 126.451C34.6094 125.803 32.8784 124.394 33.939 120.725L42.3319 52.4381C41.5091 48.4568 46.0378 43.603 51.4685 40.1808Z" fill="url(#paint5_linear_421_1995)"/>
<defs>
<filter id="filter0_f_421_1995" x="55.1777" y="66.1293" width="131.574" height="110.287" filterUnits="userSpaceOnUse" color-interpolation-filters="sRGB">
<feFlood flood-opacity="0" result="BackgroundImageFix"/>
<feBlend mode="normal" in="SourceGraphic" in2="BackgroundImageFix" result="shape"/>
<feGaussianBlur stdDeviation="4.72318" result="effect1_foregroundBlur_421_1995"/>
</filter>
<filter id="filter1_f_421_1995" x="10.9001" y="13.2853" width="159.86" height="138.573" filterUnits="userSpaceOnUse" color-interpolation-filters="sRGB">
<feFlood flood-opacity="0" result="BackgroundImageFix"/>
<feBlend mode="normal" in="SourceGraphic" in2="BackgroundImageFix" result="shape"/>
<feGaussianBlur stdDeviation="11.7946" result="effect1_foregroundBlur_421_1995"/>
</filter>
<linearGradient id="paint0_linear_421_1995" x1="36.4953" y1="140.599" x2="61.4669" y2="132.713" gradientUnits="userSpaceOnUse">
<stop stop-color="#848484"/>
<stop offset="0.0001" stop-color="#D89731"/>
<stop offset="1" stop-color="#E9B43B"/>
</linearGradient>
<linearGradient id="paint1_linear_421_1995" x1="153.573" y1="84.2269" x2="161.38" y2="78.3481" gradientUnits="userSpaceOnUse">
<stop stop-color="#FAD9A2"/>
<stop offset="1" stop-color="#FEF9F2"/>
</linearGradient>
<linearGradient id="paint2_linear_421_1995" x1="52.9215" y1="154.384" x2="69.6827" y2="150.536" gradientUnits="userSpaceOnUse">
<stop stop-color="#DFA435"/>
<stop offset="1" stop-color="#E9B43B"/>
</linearGradient>
<linearGradient id="paint3_linear_421_1995" x1="65.6097" y1="142.55" x2="164.41" y2="83.1675" gradientUnits="userSpaceOnUse">
<stop stop-color="#E8B33B"/>
<stop offset="1" stop-color="#FCDEAF"/>
</linearGradient>
<linearGradient id="paint4_linear_421_1995" x1="65.7954" y1="30.1935" x2="65.2753" y2="115.529" gradientUnits="userSpaceOnUse">
<stop stop-color="#FEBB08"/>
<stop offset="1" stop-color="#FF5C00"/>
</linearGradient>
<linearGradient id="paint5_linear_421_1995" x1="63.9024" y1="18.7228" x2="39.8459" y2="141.206" gradientUnits="userSpaceOnUse">
<stop stop-color="#F8D68D"/>
<stop offset="1" stop-color="#FDC124"/>
</linearGradient>
</defs>
</svg>

<svg width="187" height="177" fill="none" xmlns="http://www.w3.org/2000/svg"><g filter="url(#a)"><path d="M82.468 80.256c5.43-3.422 11.763-5.413 15.755-4.429l77.054 21.942c.829-.022 1.28.694 1.506 1.052l.225.358.226.357c.225.358-.152 1.096-.152 1.096.225.358-.378.739-.756 1.477-.604.38-.378.738-.982 1.118-.603.38-.377.738-.981 1.118-.603.381-.981 1.119-.981 1.119l-1.207.76-89.305 56.277-.604.38-.603.38-.603.38-.604.38-1.207.761c-2.639 1.163-4.9 1.588-7.161 2.013-.604.38-.83.022-.83.022l-.828.023c-1.658.045-1.884-.313-1.884-.313-2.938-.649-4.669-2.058-3.608-5.726l8.393-68.288c-.823-3.981 3.706-8.835 9.136-12.257Z" fill="#26255F" fill-opacity=".3"/></g><path d="m38.901 125.496 2.001 3.175c-1.642.049-1.865-.304-1.865-.304-1.642.05-2.908-.631-3.575-1.69l-2.001-3.175c.667 1.058 1.933 1.739 3.575 1.69.223.353.223.353 1.865.304Z" fill="#848484"/><path d="m145.132 59.046 2.001 3.176c.223.352-.154 1.083-.154 1.083l-.377.73-2-3.175.376-.73s.377-.73.154-1.084Z" fill="#919191"/><path d="m144.821 61.21 2.001 3.175-.377.73-.376.73-2.001-3.175c-.223-.353.376-.73.753-1.46Z" fill="#8C8C8C"/><path d="m143.846 62.315 2.001 3.175c-.599.378-.376.73-.975 1.108l-2.001-3.175c.599-.378.599-.378.975-1.108Z" fill="#888"/><path d="m142.869 63.414 2.001 3.175-.599.377-1.402-3.552Z" fill="#888"/><path d="m142.269 63.791 2.001 3.175-1.198.755-2.001-3.175c.822-.025 1.42-.402 1.198-.755Z" fill="#848484"/><path d="m140.696 65.283-88.64 55.857 2 3.175 88.641-55.857-2.001-3.175Z" fill="#858585"/><path d="m52.06 121.151 2 3.175-.599.377-.599.378-.599.377-.599.378-1.197.754c-2.618 1.157-4.86 1.584-7.101 2.01-.6.378-.822.025-.822.025l-.82.025-2.224-3.528.821-.025.822-.025c2.24-.426 4.482-.853 7.1-2.01l1.198-.755.6-.377.598-.377.599-.378.821-.024ZM141.896 64.535l2.001 3.175-1.198.755-2.001-3.175 1.198-.755Z" fill="#848484"/><path d="M144.82 61.203c.599-.378.377-.73.155-1.083.376-.73.154-1.083.154-1.083l17.564 27.872c.444.705.068 1.435-.908 2.543L144.221 61.58l.599-.377Z" fill="#919191"/><path d="m162.384 89.078 2.001 3.175-2.001-3.175c-.599.377-.599.377 0 0Z" fill="#818181"/><path d="m161.784 89.456 2.001 3.175-.376.73-2.001-3.175.376-.73Z" fill="#828282"/><path d="M144.446 61.94c-.222-.353-.222-.353 0 0l17.941 27.141-.976 1.108-17.564-27.872.599-.378Z" fill="#8D8D8D"/><path d="m161.41 90.185 2.001 3.175-18.163-27.494-1.778-2.822 17.94 27.141Z" fill="gray"/><path d="m143.469 63.044 17.94 27.142-.975 1.107-17.564-27.872.599-.377c-.599.377-.599.377 0 0Z" fill="#888"/><path d="m160.813 90.564 2.001 3.175-.976 1.108-2-3.175.975-1.108Z" fill="#818181"/><path d="m159.833 91.662 2.001 3.175-.599.377-.599.378-2.001-3.175c.222.352.821-.025 1.198-.755 0 0-.599.377 0 0Z" fill="gray"/><path d="m51.371 122.448 1.813-1.142 17.44 27.675c-9.064 5.711-17.093 6.366-19.3 2.863l-17.44-27.676.22.351.221.35.221.35.22.351c.442.7 1.267.67 2.092.639 0 0 .221.351.825-.03l.825-.03.825-.031c.825-.03.825-.03 1.43-.411l.824-.03.605-.381.604-.381s.604-.381.825-.03c0 0 .604-.381.825-.031l.604-.381.604-.38c.604-.381 1.43-.412 2.638-1.173l.604-.381c1.87.29 1.87.29 2.475-.091Z" fill="url(#b)"/><path fill-rule="evenodd" clip-rule="evenodd" d="m134.201 73.275 1.797-1.132c.599-.378.599-.378 1.055-2.31l.599-.377c.701-.442 1.113-.89 1.453-1.26.241-.262.447-.486.695-.642l.599-.377.599-.378c-.181-.287.091-.566.25-.695l-.55-.833.599-.378.599-.377.599-.378.28.445.124-.078.352-.77c.599-.377.599-.377.95-1.147l.352-.77.352-.77c.599-.377.351-.77.351-.77.352-.77.704-1.539.209-2.324l18.544 29.427c2.472 3.924-.588 7.907-11.32 13.711l-18.488-27.817Z" fill="url(#c)"/><path d="m158.862 92.783 2.001 3.175-.599.378-1.402-3.553c-.599.378-.599.378 0 0Z" fill="#FAD9A2"/><path d="m69.622 149.017 2 3.175c-8.384 5.284-16.374 5.883-18.598 2.355l-2-3.175c2.223 3.528 10.213 2.929 18.598-2.355Z" fill="url(#d)"/><path fill-rule="evenodd" clip-rule="evenodd" d="m52.056 121.137 88.64-55.857 17.564 27.872-88.64 55.857-17.564-27.872Zm17.566 27.88 88.64-55.857 2.001 3.175-88.64 55.858-2.001-3.176Z" fill="url(#e)"/><g style="mix-blend-mode:lighten" filter="url(#f)"><path d="M52.333 41.555c5.43-3.422 11.763-5.413 15.755-4.429l77.055 21.942c.829-.022 1.28.694 1.505 1.052l.226.357.225.358c.226.358-.152 1.096-.152 1.096.225.358-.378.738-.756 1.477-.603.38-.378.738-.981 1.118-.604.38-.378.738-.982 1.118-.603.38-.981 1.119-.981 1.119l-1.207.76-89.305 56.276-.603.381-.604.38-.603.38-.604.38-1.206.761c-2.64 1.163-4.901 1.588-7.162 2.013-.604.38-.83.022-.83.022l-.828.023c-1.658.044-1.884-.314-1.884-.314-2.937-.648-4.668-2.057-3.608-5.726l8.393-68.287c-.823-3.981 3.706-8.835 9.137-12.257Z" fill="url(#g)" fill-opacity=".6"/></g><path d="M51.468 40.18c5.431-3.421 11.764-5.412 15.756-4.428l77.054 21.942c.829-.022 1.28.694 1.506 1.051l.225.358.226.358c.225.358-.153 1.096-.153 1.096.226.358-.377.738-.755 1.476-.604.38-.378.739-.982 1.119-.603.38-.378.738-.981 1.118-.603.38-.981 1.118-.981 1.118l-1.207.761-89.305 56.276-.604.381-.603.38-.604.38-.603.38-1.207.761c-2.639 1.163-4.9 1.588-7.161 2.013-.604.38-.83.022-.83.022l-.828.023c-1.658.044-1.884-.314-1.884-.314-2.938-.648-4.669-2.057-3.608-5.726l8.393-68.287c-.823-3.981 3.706-8.835 9.136-12.257Z" fill="url(#h)"/><defs><linearGradient id="b" x1="36.495" y1="140.599" x2="61.467" y2="132.713" gradientUnits="userSpaceOnUse"><stop stop-color="#848484"/><stop offset="0" stop-color="#D89731"/><stop offset="1" stop-color="#E9B43B"/></linearGradient><linearGradient id="c" x1="153.573" y1="84.227" x2="161.38" y2="78.348" gradientUnits="userSpaceOnUse"><stop stop-color="#FAD9A2"/><stop offset="1" stop-color="#FEF9F2"/></linearGradient><linearGradient id="d" x1="52.922" y1="154.384" x2="69.683" y2="150.536" gradientUnits="userSpaceOnUse"><stop stop-color="#DFA435"/><stop offset="1" stop-color="#E9B43B"/></linearGradient><linearGradient id="e" x1="65.61" y1="142.55" x2="164.41" y2="83.168" gradientUnits="userSpaceOnUse"><stop stop-color="#E8B33B"/><stop offset="1" stop-color="#FCDEAF"/></linearGradient><linearGradient id="g" x1="65.795" y1="30.194" x2="65.275" y2="115.529" gradientUnits="userSpaceOnUse"><stop stop-color="#FEBB08"/><stop offset="1" stop-color="#FF5C00"/></linearGradient><linearGradient id="h" x1="63.902" y1="18.723" x2="39.846" y2="141.206" gradientUnits="userSpaceOnUse"><stop stop-color="#F8D68D"/><stop offset="1" stop-color="#FDC124"/></linearGradient><filter id="a" x="55.178" y="66.129" width="131.574" height="110.287" filterUnits="userSpaceOnUse" color-interpolation-filters="sRGB"><feFlood flood-opacity="0" result="BackgroundImageFix"/><feBlend in="SourceGraphic" in2="BackgroundImageFix" result="shape"/><feGaussianBlur stdDeviation="4.723" result="effect1_foregroundBlur_421_1995"/></filter><filter id="f" x="10.9" y="13.285" width="159.86" height="138.573" filterUnits="userSpaceOnUse" color-interpolation-filters="sRGB"><feFlood flood-opacity="0" result="BackgroundImageFix"/><feBlend in="SourceGraphic" in2="BackgroundImageFix" result="shape"/><feGaussianBlur stdDeviation="11.795" result="effect1_foregroundBlur_421_1995"/></filter></defs></svg>
